X: 23319
T: Legacy, The
R: jig
M: 6/8
K: Gmajor
G3 BAB|GBd gab|G3 BAB|dBA AGE|
G3 BAB|GBd gab|age edB|1 dBA ABA:|2 dBA ABd||
ege edB|ded dBd|ege edB|gdB ABd|
ege edB|ded def|gfg efg|1 dBG ABd:|2 dBG AGE||

